!!!!SEGMENT: pl-sa--193-a-v-23--001_pausch-eugen--missa-in-c-kyrie.krn
!!!cenid: 17xx:636
!!!COM: Pausch, Eugen
!!!COM-rismid: pe30002453
!!!CDT: 1758-1838
!!!CNT: German
!!!OPR: Missa in C
!!!OTL: Kyrie
!!!OMV: 001
!!!PDT:
!!!AGN: Sacred; Mass
!!!SMS-siglum: PL-SA
!!!SMS-shelfmark: 193/A V 23
!!!SMS-shelfwork: 001-001 M
!!!SMS-variant:
!!!SMS-altvar:
!!!NIFC-rismid: 1001036465
!!!URL-scan: http://bc.bdsandomierz.pl/dlibra/publication/1529/edition/1497/content
!!!ONB-nifc: UWAGA: części Mszy: Kyrie, Gloria, Credo, Sanctus, Benedictus, Agnus Dei, Dona Uwaga: brak partii cornu 2.
!!!AIN: 2 clars 3 empty 1 organ 2 violn 1 vox
!!!key:
**kern	**fba	**dynam	**kern	**dynam	**kern	**dynam	**kern	**text	**kern	**text	**kern	**kern	**kern	**kern
*part9	*	*part9	*part8	*part8	*part7	*part7	*part6	*part6	*part5	*part5	*part4	*part3	*part2	*part1
*	*	*	*group4	*	*group4	*	*group3	*	*group3	*	*group2	*group2	*group1	*group1
*staff9	*	*	*staff8	*	*staff7	*	*staff6	*staff6	*staff5	*staff5	*staff4	*staff3	*staff2	*staff1
*Iorgan	*	*	*Ivioln	*	*Ivioln	*	*Iempty	*	*Ivox	*	*Iempty	*Iempty	*Iclars	*Iclars
*I"Organo.	*	*	*I"Violino 2do	*	*I"Violino 1mo	*	*I"Baſso	*	*I"Canto	*	*I"Cornu Secondo in C.	*I"Cornu Primo in C.	*I"Clarinetto vel Oboe 2do: in C.	*I"Clarinetto vel Oboe 1. in C
*I'Org	*	*	*I'Vl 2	*	*I'Vl 1	*	*I'B.	*	*I'C.	*	*I'Cor 2	*I'Cor 1	*I'Cl 2	*I'Cl 1
*clefF4	*	*	*clefG2	*	*clefG2	*	*clefF4	*	*clefC1	*	*clefG2	*clefG2	*clefG2	*clefG2
*	*	*	*	*	*	*	*	*	*	*	*Trd0c0	*Trd0c0	*	*
*k[]	*	*	*k[]	*	*k[]	*	*k[]	*	*k[]	*	*k[]	*k[]	*k[]	*k[]
*C:	*	*	*C:	*	*C:	*	*C:	*	*C:	*	*C:	*C:	*C:	*C:
*M2/4	*	*	*M2/4	*	*M2/4	*	*M2/4	*	*M2/4	*	*M2/4	*M2/4	*M2/4	*M2/4
=1	=1	=1	=1	=1	=1	=1	=1	=1	=1	=1	=1	=1	=1	=1
!LO:TX:a:i:t=Largo	!	!LO:DY:b	!LO:TX:a:i:t=Largo	!	!LO:TX:a:i:t=Largo	!	!LO:TX:a:i:t=Largo	!	!LO:TX:a:i:t=Largo	!	!LO:TX:a:t=P:problem=brak partii w źródle	!LO:TX:a:i:t=Largo	!LO:TX:a:i:t=Largo.	!LO:TX:a:i:t=Largo
!	!	!	!	!	!	!	!LO:N:vis=00	!	!LO:N:vis=00	!	!	!	!	!
8r	.	p	8.e/L	.	8.g/L	.	0r	.	0r	.	2ryy	2g/	8.ee\L	8.gg\L
8C/L	4 2	.	.	.	.	.	.	.	.	.	.	.	.	.
.	.	.	16d/Jk	.	16f/Jk	.	.	.	.	.	.	.	16dd\Jk	16ff\Jk
8C/	3_ 1_	.	16c/LL	.	16e/LL	.	.	.	.	.	.	.	8cc\	8ee\
.	.	.	16c/	.	16e/	.	.	.	.	.	.	.	.	.
8C/J	X X	.	16c/	.	16e/	.	.	.	.	.	.	.	8r	8r
.	.	.	16c/JJ	.	16e/JJ	.	.	.	.	.	.	.	.	.
=2	=2	=2	=2	=2	=2	=2	=2	=2	=2	=2	=2	=2	=2	=2
8r	.	.	16c/LL	.	16e/LL	.	.	.	.	.	2ryy	8g/L	8r	8r
.	.	.	16d/J	.	16f/J	.	.	.	.	.	.	.	.	.
!LO:TX:a:t=P:problem=mixed beam	!	!	!	!	!	!	!	!	!	!	!	!	!	!
8G\L	.	.	8B/J	.	8d/J	.	.	.	.	.	.	8g/J	8cc\	8ee\
8GG/J	.	.	16B/LL	.	16d/LL	.	.	.	.	.	.	4r	16b\LL	16dd\LL
.	.	.	16c/	.	16e/	.	.	.	.	.	.	.	16cc\	16ee\
8r	.	.	16d/	.	16f/	.	.	.	.	.	.	.	16dd\	16ff\
.	.	.	16e/JJ	.	16g/JJ	.	.	.	.	.	.	.	16ee\JJ	16gg\JJ
=3	=3	=3	=3	=3	=3	=3	=3	=3	=3	=3	=3	=3	=3	=3
!	!	!	!	!	!	!	!	!	!	!	!	!LO:TX:a:t=2.	!	!
!	!	!	!	!	!	!	!	!	!	!	!	!LO:N:vis=0	!	!
8r	.	.	8.f/L	.	8.a/L	.	.	.	.	.	2ryy	1r	8.ff\L	8.aa\L
8BB/L	7 5	.	.	.	.	.	.	.	.	.	.	.	.	.
.	.	.	16e/Jk	.	16g/Jk	.	.	.	.	.	.	.	16ee\Jk	16gg\Jk
8BB/	6 4	.	16d/LL	.	16f/LL	.	.	.	.	.	.	.	8dd\	8ff\
.	.	.	16d/	.	16f/	.	.	.	.	.	.	.	.	.
8BB/J	5 3	.	16d/	.	16f/	.	.	.	.	.	.	.	8r	8r
.	.	.	16d/JJ	.	16f/JJ	.	.	.	.	.	.	.	.	.
=4	=4	=4	=4	=4	=4	=4	=4	=4	=4	=4	=4	=4	=4	=4
8r	.	.	16d/LL	.	16f/LL	.	.	.	.	.	2ryy	.	8r	8r
.	.	.	16e/J	.	16g/J	.	.	.	.	.	.	.	.	.
8C/L	3_ 1_	.	8c/J	.	8e/J	.	.	.	.	.	.	.	8cc\L	8ee\L
8C/J	.	.	8c/L	.	8e/L	.	.	.	.	.	.	.	8cc\	8ee\
8r	X X	.	8c/J	.	8e/J	.	.	.	.	.	.	.	8cc\J	8ee\J
=5	=5	=5	=5	=5	=5	=5	=5	=5	=5	=5	=5	=5	=5	=5
*	*	*	*	*	*	*below	*	*	*	*	*	*2\right	*	*
!	!	!	!	!	!	!	!LO:N:vis=0	!	!LO:N:vis=0	!	!	!	!	!
8r	.	.	8.a/L	.	8.cc\L	p	1r	.	1r	.	2ryy	2cc\	8.aa\L	8.ccc\L
8C/L	6_ 4	.	.	.	.	.	.	.	.	.	.	.	.	.
.	.	.	16g/Jk	.	16b\Jk	.	.	.	.	.	.	.	16gg\Jk	16bb\Jk
8C/	.	.	16f/LL	.	16a/LL	.	.	.	.	.	.	.	8ff\	8aa\L
.	.	.	16f/	.	16a/	.	.	.	.	.	.	.	.	.
8C/J	.	.	16f/	.	16a/	.	.	.	.	.	.	.	16r	8aa\J
.	.	.	16f/JJ	.	16a/JJ	.	.	.	.	.	.	.	16ff\	.
!	!	!	!	!	!LO:LB:g=original	!	!	!	!	!	!	!	!	!
=6	=6	=6	=6	=6	=6	=6	=6	=6	=6	=6	=6	=6	=6	=6
8r	.	.	16f/LL	.	16a/LL	.	.	.	.	.	2ryy	4cc\	16ff\LL	16aa\LL
.	.	.	16g/	.	16b/	.	.	.	.	.	.	.	16gg\	16bb\
8C/L	.	.	16a/	.	16cc/	.	.	.	.	.	.	.	16aa\	16ccc\
.	.	.	16f/JJ	.	16a/JJ	.	.	.	.	.	.	.	16ff\JJ	16aa\JJ
!	!	!	!LO:LB:g=original	!	!	!	!	!	!	!	!	!	!	!
8BB/	6	.	8e/L	.	8g/L	.	.	.	.	.	.	8r	8ee\L	8gg\L
8GG/J	.	.	8d/J	.	8f/J	.	.	.	.	.	.	8dd\	8dd\J	8ff\J
=7	=7	=7	=7	=7	=7	=7	=7	=7	=7	=7	=7	=7	=7	=7
*	*	*	*Xtuplet	*	*Xtuplet	*	*	*	*	*	*	*	*	*
!LO:TX:a:t=P:problem=mixed beam	!	!	!	!	!	!	!	!	!	!	!	!	!	!
8C\L	.	.	24c/LL	.	24e/LL	.	2r	.	2r	.	2ryy	8ee\L	4cc\	8ee\L
.	.	.	24B/	.	24d/	.	.	.	.	.	.	.	.	.
.	.	.	24c/JJ	.	24e/JJ	.	.	.	.	.	.	.	.	.
*	*	*	*	*	*	*	*	*	*	*	*	*	*	*Xtuplet
8F\	6	.	24f/LL	.	24a/LL	.	.	.	.	.	.	8ff\	.	24aa\L
.	.	.	24e/	.	24g/	.	.	.	.	.	.	.	.	24gg\
.	.	.	24d/JJ	.	24f/JJ	.	.	.	.	.	.	.	.	24ff\JJ
8G\	4	.	8c/L	.	8e/L	.	.	.	.	.	.	8ee\	8cc\L	8ee\L
8GG/J	3	.	8B/J	.	8d/J	.	.	.	.	.	.	8dd\J	8b\J	8dd\J
=8	=8	=8	=8	=8	=8	=8	=8	=8	=8	=8	=8	=8	=8	=8
*	*	*	*tremolo	*	*	*	*	*	*	*	*	*	*2\right	*2\right
!LO:TX:a:t=Tutti	!	!	!	!	!	!	!LO:TX:b:t=P:problem="K" przed kluczem	!	!LO:TX:b:t=P:problem="K" przed kluczem	!	!	!	!	!
16C/LL	.	.	16e 16G/LL	.	4c/	.	8.C/	[K]y-	8.cc\	[K]y-	2ryy	2cc\	2cc\	2ee\
16GG/	.	.	16e 16G/	.	.	.	.	.	.	.	.	.	.	.
16C/	.	.	16e 16G/	.	.	.	.	.	.	.	.	.	.	.
16GG/JJ	.	.	16e 16G/	.	.	.	16C/	-ri-	16cc\	-ri-	.	.	.	.
16E/LL	6	.	16e 16G/	.	16r	.	8C/	-e	8cc\	-e	.	.	.	.
16GG/	.	.	16e 16G/	.	16gg\LL	.	.	.	.	.	.	.	.	.
16E/	.	.	16e 16G/	.	16gg\	.	8C/	e-	8cc\	e-	.	.	.	.
16GG/JJ	.	.	16e 16G/JJ	.	16gg\JJ	.	.	.	.	.	.	.	.	.
!LO:LB:g=original	!	!	!	!	!	!	!	!	!	!	!	!	!	!LO:LB:g=original
=9	=9	=9	=9	=9	=9	=9	=9	=9	=9	=9	=9	=9	=9	=9
16D/LL	6	.	16f 16G/LL	.	16gg\LL	.	4BB/	-ley-	4dd\	-ley-	2ryy	2dd\	4cc\	2ff\
16GG/	.	.	16f 16G/	.	16b\J	.	.	.	.	.	.	.	.	.
16D/	.	.	16f 16G/	.	8b\J	.	.	.	.	.	.	.	.	.
16GG/JJ	.	.	16f 16G/	.	.	.	.	.	.	.	.	.	.	.
!LO:TX:a:t=P:problem=mixed beam	!	!	!	!	!	!	!	!	!	!	!	!	!	!
16F\LL	4 2	.	16f 16G/	.	16r	.	4BB/	-son	4dd\	-son	.	.	4dd\	.
16GG/	.	.	16f 16G/	.	16b\LL	.	.	.	.	.	.	.	.	.
16F\	.	.	16f 16G/	.	16b\	.	.	.	.	.	.	.	.	.
16GG/JJ	.	.	16f 16G/JJ	.	16b\JJ	.	.	.	.	.	.	.	.	.
!	!	!	!	!	!	!	!	!	!	!	!	!	!LO:LB:g=original	!
=10	=10	=10	=10	=10	=10	=10	=10	=10	=10	=10	=10	=10	=10	=10
16C/LL	.	.	16e 16G/LL	.	16cc\LL	.	8.C/	Ky-	8.cc\	Ky-	2ryy	2ee\	2cc\	2ee\
16GG/	.	.	16e 16G/	.	16g\J	.	.	.	.	.	.	.	.	.
16C/	.	.	16e 16G/	.	8g\J	.	.	.	.	.	.	.	.	.
16GG/JJ	.	.	16e 16G/	.	.	.	16C/	-ri-	16cc\	-ri-	.	.	.	.
16E/LL	6	.	16e 16G/	.	16r	.	8C/	-e	8cc\	-e	.	.	.	.
16GG/	.	.	16e 16G/	.	16gg\LL	.	.	.	.	.	.	.	.	.
16E/	.	.	16e 16G/	.	16gg\	.	8C/	e-	8cc\	e-	.	.	.	.
16GG/JJ	.	.	16e 16G/JJ	.	16gg\JJ	.	.	.	.	.	.	.	.	.
=11	=11	=11	=11	=11	=11	=11	=11	=11	=11	=11	=11	=11	=11	=11
*	*	*	*	*	*	*	*	*	*	*	*	*	*	*^
16D/LL	6	.	16f 16G/LL	.	16gg\LL	.	4BB/	-ley-	4dd\	-ley-	2ryy	2ff\	4b\	2ff\	4ff\
16GG/	.	.	16f 16G/	.	16b\J	.	.	.	.	.	.	.	.	.	.
16D/	.	.	16f 16G/	.	8b\J	.	.	.	.	.	.	.	.	.	.
16GG/JJ	.	.	16f 16G/	.	.	.	.	.	.	.	.	.	.	.	.
!LO:TX:a:t=P:problem=mixed beam	!	!	!	!	!	!	!	!	!	!	!	!	!	!	!
16F\LL	4_ 2_	.	16f 16G/	.	16r	.	8BB/	-son	8dd\	-son	.	.	8g/L	.	4a/
16GG/	.	.	16f 16G/	.	16b\LL	.	.	.	.	.	.	.	.	.	.
16F\	.	.	16f 16G/	.	16b\	.	8BB/	e-	8dd\	e-	.	.	8e/J	.	.
16GG/JJ	X X	.	16f 16G/JJ	.	16b\JJ	.	.	.	.	.	.	.	.	.	.
*	*	*	*Xtremolo	*	*	*	*	*	*	*	*	*	*	*	*
!	!	!	!	!	!LO:LB:g=original	!	!	!	!	!	!	!	!	!	!
=12	=12	=12	=12	=12	=12	=12	=12	=12	=12	=12	=12	=12	=12	=12	=12
8C/L	x 4_ 2_	.	4f 4G/	.	4b\	.	4C/	-ley-	4dd\	-ley-	2ryy	4ff\	4f/	4ff\	4dd\
8C/	.	.	.	.	.	.	.	.	.	.	.	.	.	.	.
8C/J	8 5 3	.	8e 8G/	.	8cc\	.	8C/	-son	8cc\	-son	.	8ee\	8e/	8ee\	8cc\
8r	.	.	8r	.	8r	.	8r	.	8r	.	.	8r	8r	8r	8ryy
*	*	*	*	*	*	*	*	*	*	*	*	*	*	*v	*v
!	!	!	!	!	!	!	!	!	!	!	!	!LO:LB:g=original	!	!
=13	=13	=13	=13	=13	=13	=13	=13	=13	=13	=13	=13	=13	=13	=13
!	!	!	!	!	!	!	!	!	!	!	!	!LO:TX:a:t=4.	!LO:TX:a:t=1.	!LO:TX:a:t=1.
!	!	!	!	!	!	!	!	!	!	!	!	!LO:N:vis=00	!	!
8r	.	.	8.ee\L	.	8.gg\L	.	8.G\	Ky-	8.ee\	Ky-	2ryy	0r	2r	2r
8C/L	4 2	.	.	.	.	.	.	.	.	.	.	.	.	.
.	.	.	16dd\Jk	.	16ff\Jk	.	16F\	-ri-	16dd\	-ri-	.	.	.	.
*	*	*	*	*	*tremolo	*	*	*	*	*	*	*	*	*
8C/	3_ 1_	.	16cc\LL	.	16ee\L	.	8E\	-e	8cc\	-e	.	.	.	.
.	.	.	16cc\	.	16ee\	.	.	.	.	.	.	.	.	.
8C/J	.	.	16cc\	.	16ee\	.	8E\	e-	8cc\	e-	.	.	.	.
.	X X	.	16cc\JJ	.	16ee\J	.	.	.	.	.	.	.	.	.
!	!	!	!	!	!	!	!LO:LB:g=original	!	!	!	!	!	!	!
=14	=14	=14	=14	=14	=14	=14	=14	=14	=14	=14	=14	=14	=14	=14
16r	.	.	16cc\LL	.	16ee\LL	.	16E\LL	-ley-	16b\LL	-ley-	2ryy	.	8r	8r
16G'\LL	.	.	16dd\J	.	16ff\J	.	16F\JJ	.	16cc\JJ	.	.	.	.	.
16D'\	.	.	8b\J	.	8dd\J	.	8D\	-son	8a\	-son	.	.	8b\	8dd\
16G'\JJ	.	.	.	.	.	.	.	.	.	.	.	.	.	.
16GG'/LL	.	.	16b\LL	.	16dd\LL	.	4r	.	4r	.	.	.	16b\LL	16dd\LL
16BB'/	.	.	16cc\	.	16ee\	.	.	.	.	.	.	.	16cc\	16ee\
16D'/	.	.	16dd\	.	16ff\	.	.	.	.	.	.	.	16dd\	16ff\
16G'/JJ	.	.	16ee\JJ	.	16gg\JJ	.	.	.	.	.	.	.	16ee\JJ	16gg\JJ
!	!	!	!	!	!	!	!	!	!LO:LB:g=original	!	!	!	!	!
=15	=15	=15	=15	=15	=15	=15	=15	=15	=15	=15	=15	=15	=15	=15
8r	.	.	8.ff\L	.	8.aa\L	.	8.A\	Ky-	8.ff\	Ky-	2ryy	.	8ff\	8aa\
8B\L	7 5	.	.	.	.	.	.	.	.	.	.	.	8r	8r
.	.	.	16ee\Jk	.	16gg\Jk	.	16G\	-ri-	16ee\	-ri-	.	.	.	.
8B\	6 4	.	16dd\LL	.	16ff\L	.	8F\	-e	8dd\	-e	.	.	4r	4r
.	.	.	16dd\	.	16ff\	.	.	.	.	.	.	.	.	.
8B\J	5 3	.	16dd\	.	16ff\	.	8F\	e-	8dd\	e-	.	.	.	.
.	.	.	16dd\JJ	.	16ff\J	.	.	.	.	.	.	.	.	.
*	*	*	*	*	*Xtremolo	*	*	*	*	*	*	*	*	*
!LO:LB:g=original	!	!	!LO:LB:g=original	!	!	!	!	!	!	!	!	!	!	!
=16	=16	=16	=16	=16	=16	=16	=16	=16	=16	=16	=16	=16	=16	=16
16r	.	.	16dd\LL	.	16ff\LL	.	16F\LL	-ley-	16dd\LL	-ley-	2ryy	.	8r	8r
16c'\LL	.	.	16ee\J	.	16gg\J	.	16G\JJ	.	16ee\JJ	.	.	.	.	.
16G'\	.	.	8cc\J	.	8ee\J	.	8E\	-son	8cc\	-son	.	.	8cc\L	8ee\L
16E'\JJ	.	.	.	.	.	.	.	.	.	.	.	.	.	.
16C'\LL	.	.	8cc\L	.	8ee\L	.	4r	.	4r	.	.	.	8cc\	8ee\
16E'\	.	.	.	.	.	.	.	.	.	.	.	.	.	.
16G'\	.	.	8cc\J	.	8ee\J	.	.	.	.	.	.	.	8cc\J	8ee\J
16c'\JJ	.	.	.	.	.	.	.	.	.	.	.	.	.	.
=17	=17	=17	=17	=17	=17	=17	=17	=17	=17	=17	=17	=17	=17	=17
8r	.	.	8.a/L	.	8.ccc\L	.	8.c\	Ky-	8.aa\	Ky-	2ryy	2cc\	8.aa\L	8.ccc\L
8C/L	6 4	.	.	.	.	.	.	.	.	.	.	.	.	.
.	.	.	16g/Jk	.	16bb\Jk	.	16c\	-ri-	16gg\	-ri-	.	.	16gg\Jk	16bb\Jk
*	*	*	*	*	*tremolo	*	*	*	*	*	*	*	*	*
8C/	.	.	16f/LL	.	16aa\L	.	8c\	-e	8ff\	-e	.	.	16ff\LL	16aa\LL
.	.	.	16f/	.	16aa\	.	.	.	.	.	.	.	16ff\	16aa\
8C/J	.	.	16f/	.	16aa\	.	8c\	e-	8ff\	e-	.	.	16ff\	16aa\
.	.	.	16f/JJ	.	16aa\J	.	.	.	.	.	.	.	16ff\JJ	16aa\JJ
*	*	*	*	*	*Xtremolo	*	*	*	*	*	*	*	*	*
=18	=18	=18	=18	=18	=18	=18	=18	=18	=18	=18	=18	=18	=18	=18
8r	.	.	16f/LL	.	16aa\LL	.	4c\	-ley-	16ff\LL	-ley-	2ryy	8cc\	16ff\LL	16aa\LL
.	.	.	16g/	.	16bb\	.	.	.	16gg\	.	.	.	16gg\	16bb\
8C/L	6 4	.	16a/	.	16ccc\	.	.	.	16aa\	.	.	8r	16aa\	16ccc\
!	!	!	!LO:LB:g=original	!	!	!	!	!	!	!	!	!	!	!
.	.	.	16f/JJ	.	16aa\JJ	.	.	.	16ff\JJ	.	.	.	16ff\JJ	16aa\JJ
8BB/	6	.	8e/L	.	8aa\L	.	8B\	-son	8ee\	-son	.	8r	4dd\	8gg\L
8GG/J	7	.	8d/J	.	8gg\J	.	8G\	e-	8dd\	e-	.	8g/	.	8ff\J
=19	=19	=19	=19	=19	=19	=19	=19	=19	=19	=19	=19	=19	=19	=19
*	*	*	*	*	*	*	*	*	*Xtuplet	*	*	*	*	*
!LO:TX:a:t=P:problem=mixed beam	!	!	!	!	!	!	!	!	!	!	!	!	!	!
8C\L	.	.	24g/LL	.	24ee\LL	.	8c\L	-ley-	24ee\LL	-ley-	2ryy	8g\L	4cc\	8ee\L
.	.	.	24f/	.	24dd\	.	.	.	24dd\	.	.	.	.	.
.	.	.	24g/JJ	.	24ee\JJ	.	.	.	24ee\JJ	.	.	.	.	.
8F\	6	.	24f/LL	.	24aa\LL	.	8F\J	.	24ff\LL	.	.	8ff\	.	24aa\L
.	.	.	24e/	.	24gg\	.	.	.	24ee\	.	.	.	.	24gg\
.	.	.	24d/JJ	.	24ff\JJ	.	.	.	24dd\JJ	.	.	.	.	24ff\JJ
!	!	!	!	!	!LO:LB:g=original	!	!LO:TX:a:t=P:problem=mixed beam	!	!	!	!	!	!	!
8G\	4	.	8c/L	.	8ee\L	.	8G\L	.	8cc\L	.	.	8ee\	8cc\L	8ee\L
.	3	.	.	.	.	.	.	.	.	.	.	.	.	.
8GG/J	.	.	8B/J	.	8ddT\J	.	8GG/J	.	8b\J	.	.	8dd\J	8b\J	8dd\J
!	!	!	!	!	!	!	!	!	!	!	!	!	!	!LO:LB:g=original
=20	=20	=20	=20	=20	=20	=20	=20	=20	=20	=20	=20	=20	=20	=20
*	*	*	*tremolo	*	*	*	*	*	*	*	*	*	*	*
!LO:TX:a:t=Tutti	!	!	!	!LO:DY:rj	!	!	!	!	!	!	!	!	!	!
16C/LL	.	.	16e 16G/LL	f	4cc\	.	4C/	-son	4cc\	-son	2ryy	2ee\	2cc\	2ee\
16GG/	.	.	16e 16G/	.	.	.	.	.	.	.	.	.	.	.
16C/	.	.	16e 16G/	.	.	.	.	.	.	.	.	.	.	.
16GG/JJ	.	.	16e 16G/	.	.	.	.	.	.	.	.	.	.	.
16E/LL	6	.	16e 16G/	.	16r	.	4r	.	4r	.	.	.	.	.
16GG/	.	.	16e 16G/	.	16gg\LL	f	.	.	.	.	.	.	.	.
16E/	.	.	16e 16G/	.	16gg\	.	.	.	.	.	.	.	.	.
16GG/JJ	.	.	16e 16G/JJ	.	16gg\JJ	.	.	.	.	.	.	.	.	.
!	!	!	!	!	!	!	!LO:LB:g=original	!	!LO:LB:g=original	!	!	!	!	!
=21	=21	=21	=21	=21	=21	=21	=21	=21	=21	=21	=21	=21	=21	=21
!	!	!	!	!LO:DY:rj	!	!	!	!	!	!	!	!	!	!
16D/LL	6	.	16f 16G/LL	fp	16gg\LL	.	8.B\	Ky-	8.dd\	Ky-	2ryy	2ff\	4b\	2ff\
16GG/	.	.	16f 16G/	.	16b\J	.	.	.	.	.	.	.	.	.
16D/	.	.	16f 16G/	.	8b\J	.	.	.	.	.	.	.	.	.
16GG/JJ	.	.	16f 16G/	.	.	.	16B\	-ri-	16dd\	-ri-	.	.	.	.
16F/LL	4 2	.	16f 16G/	.	16r	.	8B\	-e	8dd\	-e	.	.	4dd\	.
16GG/	.	.	16f 16G/	.	16b\LL	.	.	.	.	.	.	.	.	.
16F/	.	.	16f 16G/	.	16b\	.	8B\	e-	8dd\	e-	.	.	.	.
16GG/JJ	.	.	16f 16G/JJ	.	16b\JJ	.	.	.	.	.	.	.	.	.
!	!	!	!	!	!	!	!	!	!	!	!	!	!LO:LB:g=original	!
=22	=22	=22	=22	=22	=22	=22	=22	=22	=22	=22	=22	=22	=22	=22
!	!	!	!	!LO:DY:rj	!	!	!LO:TX:a:t=P:problem=mixed beam	!	!	!	!	!	!	!
16C/LL	.	.	16e 16G/LL	fp	16cc\LL	.	8c\L	-ley-	8cc\	-ley-	2ryy	2ee\	2cc\	2ee\
16GG/	.	.	16e 16G/	.	16g\J	.	.	.	.	.	.	.	.	.
16C/	.	.	16e 16G/	.	8g\J	.	8C/J	-son	8cc\	-son	.	.	.	.
16GG/JJ	.	.	16e 16G/	.	.	.	.	.	.	.	.	.	.	.
16E/LL	6	.	16e 16G/	.	16r	.	8r	.	8r	.	.	.	.	.
16GG/	.	.	16e 16G/	.	16gg\LL	.	.	.	.	.	.	.	.	.
16E/	.	.	16e 16G/	.	16gg\	.	16c\	Ky-	16cc\	Ky-	.	.	.	.
16GG/JJ	.	.	16e 16G/JJ	.	16gg\JJ	.	16c\	-ri-	16cc\	-ri-	.	.	.	.
!LO:LB:g=original	!	!	!	!	!	!	!	!	!	!	!	!	!	!
=23	=23	=23	=23	=23	=23	=23	=23	=23	=23	=23	=23	=23	=23	=23
!	!	!	!	!LO:DY:rj	!	!	!	!	!	!	!	!	!	!
16D/LL	6	.	16f 16G/LL	fp	16gg\LL	.	8B\	-e	8dd\	-e	2ryy	2ff\	4cc\	4ff\
16GG/	.	.	16f 16G/	.	16b\J	.	.	.	.	.	.	.	.	.
16D/	.	.	16f 16G/	.	8b\J	.	8B\	e-	8dd\	e-	.	.	.	.
16GG/JJ	.	.	16f 16G/	.	.	.	.	.	.	.	.	.	.	.
16F/LL	4 2	.	16f 16G/	.	16r	.	4B\	-ley-	4dd\	-ley-	.	.	8g/L	4b\
16GG/	.	.	16f 16G/	.	16b\LL	.	.	.	.	.	.	.	.	.
16F/	.	.	16f 16G/	.	16b\	.	.	.	.	.	.	.	8f/J	.
16GG/JJ	.	.	16f 16G/JJ	.	16b\JJ	.	.	.	.	.	.	.	.	.
*	*	*	*Xtremolo	*	*	*	*	*	*	*	*	*	*	*
=24	=24	=24	=24	=24	=24	=24	=24	=24	=24	=24	=24	=24	=24	=24
!	!	!	!LO:TX:a:t=P:problem=mixed beam	!	!	!	!	!	!	!	!	!	!	!
4C/	.	.	8e/L	.	8cc\L	.	8c\	-son	8cc\	-son	2ryy	4ee\	4e/	4cc\
.	.	.	8cc\	.	8ee\	p	8c\	Chri-	8ee\	Chri-	.	.	.	.
4r	.	.	8cc\	.	8ee\	.	8c\	-ste	8ee\	-ste	.	4r	4r	4r
.	.	.	8cc\J	.	8ee\J	.	8c\	e-	8ee\	e-	.	.	.	.
=25	=25	=25	=25	=25	=25	=25	=25	=25	=25	=25	=25	=25	=25	=25
!	!	!	!	!	!	!	!	!	!	!	!	!	!LO:TX:a:t=1.	!LO:TX:a:t=1.
8r	.	.	8.cc\L	.	8.ee\L	.	8.c\L	-ley-	8.ee\L	-ley-	2ryy	4r	2r	2r
!LO:TX:a:t=P:problem=mixed beam	!	!	!	!	!	!	!	!	!	!	!	!	!	!
8AA/L	n	.	.	.	.	.	.	.	.	.	.	.	.	.
.	.	.	16a\Jk	.	16cc\Jk	.	16A\Jk	.	16cc\Jk	.	.	.	.	.
8E\	#	.	16g#X/LL	.	16b\LL	.	16G#X\LL	.	16b\LL	.	.	8r	.	.
.	.	.	16a/	.	16cc\	.	16A\	.	16cc\	.	.	.	.	.
8EE/J	7	.	16b/	.	16dd\	.	16B\	.	16dd\	.	.	8ee\	.	.
.	.	.	16g#/JJ	.	16b\JJ	.	16G#\JJ	.	16b\JJ	.	.	.	.	.
!	!	!	!LO:LB:g=original	!	!LO:LB:g=original	!	!	!	!	!	!	!	!	!
=26	=26	=26	=26	=26	=26	=26	=26	=26	=26	=26	=26	=26	=26	=26
4AA/	.	.	16a\LL	.	16cc\LL	.	4A\	-son	4cc\	-son	2ryy	4ee\	8r	8r
.	.	.	16cc\	.	16ee\	.	.	.	.	.	.	.	.	.
.	.	.	16ee\	.	16aa\	.	.	.	.	.	.	.	8cc\	8ee\
.	.	.	16aa\JJ	.	16ccc\JJ	.	.	.	.	.	.	.	.	.
4r	.	.	8ccc\	.	8eee\	.	4r	.	4r	.	.	4r	16a\LL	16cc\LL
.	.	.	.	.	.	.	.	.	.	.	.	.	16cc\	16ee\
.	.	.	8r	.	8r	.	.	.	.	.	.	.	16b\	16dd\
.	.	.	.	.	.	.	.	.	.	.	.	.	16a\JJ	16cc\JJ
=27	=27	=27	=27	=27	=27	=27	=27	=27	=27	=27	=27	=27	=27	=27
!LO:TX:a:t=1.	!	!	!	!	!	!	!	!	!	!	!	!LO:TX:a:t=1.	!	!
2r	.	.	8r	.	8r	.	8r	.	8.dd\L	Chri-	2ryy	2r	8g/	8b\
.	.	.	8b\L	.	8dd\L	.	8B\	Chri-	.	.	.	.	8r	8r
.	.	.	.	.	.	.	.	.	32ee\LL	.	.	.	.	.
.	.	.	.	.	.	.	.	.	32dd\JJJ	.	.	.	.	.
.	.	.	8b\	.	8dd\	.	8B\	-ste	8dd\	-ste	.	.	4r	4r
.	.	.	8b\J	.	8dd\J	.	8B\	e-	8dd\	e-	.	.	.	.
!	!	!	!	!	!	!	!LO:LB:g=original	!	!LO:LB:g=original	!	!	!	!	!
=28	=28	=28	=28	=28	=28	=28	=28	=28	=28	=28	=28	=28	=28	=28
!	!	!	!	!	!	!	!	!	!	!	!	!	!LO:TX:a:t=1.	!LO:TX:a:t=1.
8r	.	.	8.b/L	.	8.dd\L	.	8.B\L	-ley-	8.dd\L	-ley-	2ryy	4r	2r	2r
!LO:TX:a:t=P:problem=mixed beam	!	!	!	!	!	!	!	!	!	!	!	!	!	!
8GG/L	.	.	.	.	.	.	.	.	.	.	.	.	.	.
.	.	.	16g/Jk	.	16b\Jk	.	16G\Jk	.	16b\Jk	.	.	.	.	.
8D\	.	.	16f#X/LL	.	16a\LL	.	16F#X\LL	.	16a\LL	.	.	8r	.	.
.	.	.	16g/	.	16b\	.	16G\	.	16b\	.	.	.	.	.
8DD/J	7	.	16a/	.	16cc\	.	16A\	.	16cc\	.	.	8dd\	.	.
.	.	.	16f#/JJ	.	16a\JJ	.	16F#\JJ	.	16a\JJ	.	.	.	.	.
=29	=29	=29	=29	=29	=29	=29	=29	=29	=29	=29	=29	=29	=29	=29
!	!	!	!	!	!	!	!	!	!	!	!	!LO:TX:a:t=d	!	!
!	!	!	!	!	!	!	!	!	!	!	!	!LO:SIC:s=4dd:v	!	!
4GG/	.	.	16g\LL	.	16b\LL	.	4G\	-son	8b\	-son	2ryy	4ee\	8r	8r
.	.	.	16b\	.	16dd\	.	.	.	.	.	.	.	.	.
.	.	.	16dd\	.	16gg\	.	.	.	8r	.	.	.	8b\	8dd\
.	.	.	16gg\JJ	.	16bb\JJ	.	.	.	.	.	.	.	.	.
4r	.	.	8bb\	.	8ddd\	.	4r	.	8g\	Ky-	.	4r	16g/LL	16b\LL
.	.	.	.	.	.	.	.	.	.	.	.	.	16b/	16dd\
.	.	.	8r	.	8r	.	.	.	8g\	-ri-	.	.	16a/	16cc\
.	.	.	.	.	.	p	.	.	.	.	.	.	16g/JJ	16b\JJ
!	!	!	!	!	!	!	!	!	!	!	!	!LO:LB:g=original	!	!
=30	=30	=30	=30	=30	=30	=30	=30	=30	=30	=30	=30	=30	=30	=30
*	*	*	*tremolo	*	*	*	*	*	*	*	*	*	*	*
!	!	!	!	!LO:DY:rj	!	!	!LO:N:vis=00	!	!	!	!	!	!	!
16Fn\LL	4_ 2_	.	16g 16G/LL	fp	16b\LL	.	0r	.	8.gg\	-e	2ryy	2dd\	8g/	8b\
16F\	.	.	16g 16G/	.	16b\	.	.	.	.	.	.	.	.	.
16F\	.	.	16g 16G/	.	16b\	.	.	.	.	.	.	.	8r	8r
16F\JJ	X X	.	16g 16G/	.	16b\JJ	.	.	.	16ffn\	e-	.	.	.	.
*tremolo	*	*	*	*	*tremolo	*	*	*	*	*	*	*	*	*
16F\LL	.	.	16g 16G/	.	16b\L	.	.	.	16ee\LL	-ley-	.	.	4r	4r
16F\	.	.	16g 16G/	.	16b\	.	.	.	16dd\	.	.	.	.	.
16F\	.	.	16g 16G/	.	16b\	.	.	.	16cc\	.	.	.	.	.
16F\JJ	.	.	16g 16G/JJ	.	16b\J	.	.	.	16b\JJ	.	.	.	.	.
=31	=31	=31	=31	=31	=31	=31	=31	=31	=31	=31	=31	=31	=31	=31
*2\right	*	*	*	*	*2\right	*	*	*	*	*	*	*	*	*
!	!	!	!	!LO:DY:rj	!	!	!	!	!	!	!	!	!LO:TX:a:t=4.	!LO:TX:a:t=4.
!	!	!	!	!	!	!	!	!	!	!	!	!	!LO:N:vis=00	!LO:N:vis=00
16E\LL	6	.	16g 16G/LL	fp	16cc\LL	.	.	.	32dd\LLL	.	2ryy	2ee\	0r	0r
.	.	.	.	.	.	.	.	.	32cc\	.	.	.	.	.
16E\	.	.	16g 16G/	.	16cc\	.	.	.	32b\	.	.	.	.	.
.	.	.	.	.	.	.	.	.	32cc\JJJ	.	.	.	.	.
16E\	.	.	16g 16G/	.	16cc\	.	.	.	8g\	-son	.	.	.	.
16E\	.	.	16g 16G/	.	16cc\	.	.	.	.	.	.	.	.	.
16E\	.	.	16g 16G/	.	16cc\	.	.	.	8r	.	.	.	.	.
16E\	.	.	16g 16G/	.	16cc\	.	.	.	.	.	.	.	.	.
16E\	.	.	16g 16G/	.	16cc\	.	.	.	16g\	Ky-	.	.	.	.
16E\JJ	.	.	16g 16G/JJ	.	16cc\JJ	.	.	.	16g\	-ri-	.	.	.	.
=32	=32	=32	=32	=32	=32	=32	=32	=32	=32	=32	=32	=32	=32	=32
!	!	!	!	!LO:DY:rj	!	!	!	!	!	!	!	!	!	!
16E\LL	.	.	16g 16G/LL	fp	16cc\LL	.	.	.	8.gg\	-e	2ryy	2ee\	.	.
16E\	.	.	16g 16G/	.	16cc\	.	.	.	.	.	.	.	.	.
16E\	.	.	16g 16G/	.	16cc\	.	.	.	.	.	.	.	.	.
16E\	.	.	16g 16G/	.	16cc\	.	.	.	16ff\	e-	.	.	.	.
16E\	.	.	16g 16G/	.	16cc\	.	.	.	16ee\LL	-ley-	.	.	.	.
16E\	.	.	16g 16G/	.	16cc\	.	.	.	16cc\	.	.	.	.	.
16E\	.	.	16g 16G/	.	16cc\	.	.	.	16cc\	.	.	.	.	.
16E\JJ	.	.	16g 16G/JJ	.	16cc\JJ	.	.	.	16ee\JJ	.	.	.	.	.
!LO:LB:g=original	!	!	!	!	!	!	!	!	!	!	!	!	!	!
=33	=33	=33	=33	=33	=33	=33	=33	=33	=33	=33	=33	=33	=33	=33
!	!	!	!	!LO:DY:rj	!	!	!	!	!	!	!	!	!	!
16BB/LL	6	.	16g 16G/LL	fp	16dd\LL	.	.	.	16dd\LL	.	2ryy	2dd\	.	.
16BB/	.	.	16g 16G/	.	16dd\	.	.	.	16b\JJ	.	.	.	.	.
16BB/	.	.	16g 16G/	.	16dd\	.	.	.	8g\	-son	.	.	.	.
16BB/	.	.	16g 16G/	.	16dd\	.	.	.	.	.	.	.	.	.
16BB/	.	.	16g 16G/	.	16dd\	.	.	.	8r	.	.	.	.	.
16BB/	.	.	16g 16G/	.	16dd\	.	.	.	.	.	.	.	.	.
!	!	!	!	!	!	!	!	!	!LO:LB:g=original	!	!	!	!	!
16BB/	.	.	16g 16G/	.	16dd\	.	.	.	16g\	Ky-	.	.	.	.
16BB/JJ	.	.	16g 16G/JJ	.	16dd\JJ	.	.	.	16g\	-ri-	.	.	.	.
=34	=34	=34	=34	=34	=34	=34	=34	=34	=34	=34	=34	=34	=34	=34
!	!	!	!	!LO:DY:rj	!	!	!	!	!	!	!	!	!	!
16BB/LL	.	.	16g 16G/LL	fp	16dd\LL	.	2r	.	16g\	-e	2ryy	2ff\	.	.
16BB/	.	.	16g 16G/	.	16dd\	.	.	.	8ff\L	e-	.	.	.	.
16BB/	.	.	16g 16G/	.	16dd\	.	.	.	.	.	.	.	.	.
16BB/	.	.	16g 16G/	.	16dd\	.	.	.	16dd\Jk	-ley-	.	.	.	.
16BB/	.	.	16g 16G/	.	16dd\	.	.	.	16dd\KL	.	.	.	.	.
16BB/	.	.	16g 16G/	.	16dd\	.	.	.	8b\	.	.	.	.	.
16BB/	.	.	16g 16G/	.	16dd\	.	.	.	.	.	.	.	.	.
16BB/JJ	.	.	16g 16G/JJ	.	16dd\JJ	.	.	.	16f\Jk	.	.	.	.	.
*Xtremolo	*	*	*Xtremolo	*	*Xtremolo	*	*	*	*	*	*	*	*	*
!	!	!	!	!	!LO:LB:g=original	!	!	!	!	!	!	!	!	!LO:LB:g=original
=35	=35	=35	=35	=35	=35	=35	=35	=35	=35	=35	=35	=35	=35	=35
!	!	!	!	!	!	!	!	!	!LO:TX:a:t=P:problem=mixed beam	!	!	!	!	!
8C/	.	.	8g/	.	8ee\	.	8r	.	8e/L	-son	2ryy	8ee\L	8r	8r
!	!	!	!	!	!LO:TX:a:t=P:problem=mixed beam	!	!	!	!	!	!	!	!	!
8r	.	.	24ee\LL	.	24gg\LL	.	8G\	e-	8ee\J	.	.	8gg\	8ee\L	8gg\L
.	.	.	24ee\	.	24g/	.	.	.	.	.	.	.	.	.
.	.	.	24ee\JJ	.	24g/JJ	.	.	.	.	.	.	.	.	.
!	!	!	!	!	!LO:TX:a:t=P:problem=mixed beam	!	!	!	!	!	!	!	!	!
4r	.	.	24dd\LL	.	24ff\LL	.	4G\	-ley-	8dd\L	e-	.	8ff\	8dd\	8ff\
.	.	.	24dd\	.	24g/	.	.	.	.	.	.	.	.	.
.	.	.	24dd\JJ	.	24g/JJ	.	.	.	.	.	.	.	.	.
!	!	!	!	!	!LO:TX:a:t=P:problem=mixed beam	!	!	!	!	!	!	!	!	!
.	.	.	24cc\LL	.	24ee\LL	.	.	.	8cc\J	-ley-	.	8ee\J	8cc\J	8ee\J
.	.	.	24cc\	.	24g/	.	.	.	.	.	.	.	.	.
.	.	.	24cc\JJ	.	24g/JJ	.	.	.	.	.	.	.	.	.
!	!	!	!LO:LB:g=original	!	!	!	!	!	!	!	!	!	!	!
=36	=36	=36	=36	=36	=36	=36	=36	=36	=36	=36	=36	=36	=36	=36
!	!	!	!	!	!LO:TX:a:t=P:problem=mixed beam	!	!	!	!	!	!	!	!	!
8GG/	.	.	8b\	.	24dd\LL	.	8G\	-son	8b\	-ley-	2ryy	8dd\L	8b\L	8dd\L
.	.	.	.	.	24g/	.	.	.	.	.	.	.	.	.
.	.	.	.	.	24g/JJ	.	.	.	.	.	.	.	.	.
!	!	!	!	!	!LO:TX:a:t=P:problem=mixed beam	!	!	!	!	!	!	!	!	!
8r	.	.	24e/LL	.	24gg\LL	.	8G\	e-	8ee\	.	.	8g\	8ee\	8gg\
.	.	.	24e/	.	24g/	.	.	.	.	.	.	.	.	.
.	.	.	24e/JJ	.	24g/JJ	.	.	.	.	.	.	.	.	.
!	!	!	!	!	!LO:TX:a:t=P:problem=mixed beam	!	!	!	!	!	!	!	!	!
4r	.	.	24d/LL	.	24ff\LL	.	4G\	-ley-	8dd\L	.	.	8g\	8dd\	8ff\
.	.	.	24d/	.	24g/	.	.	.	.	.	.	.	.	.
.	.	.	24d/JJ	.	24g/JJ	.	.	.	.	.	.	.	.	.
!	!	!	!	!	!LO:TX:a:t=P:problem=mixed beam	!	!	!	!	!	!	!	!	!
.	.	.	24c/LL	.	24ee\LL	.	.	.	8cc\J	.	.	8g\J	8cc\J	8ee\J
.	.	.	24c/	.	24g/	.	.	.	.	.	.	.	.	.
.	.	.	24c/JJ	.	24g/JJ	.	.	.	.	.	.	.	.	.
!	!	!	!	!	!	!	!	!	!	!	!	!	!LO:LB:g=original	!
=37	=37	=37	=37	=37	=37	=37	=37	=37	=37	=37	=37	=37	=37	=37
8GG/	.	.	8B/	.	8.g/L	p	8G\	-son	8b\	-son	2ryy	8g/	8b\L	8dd\L
8r	.	.	8r	.	.	.	8r	.	8r	.	.	8r	8b\J	8dd\J
.	.	.	.	.	32a/LL	.	.	.	.	.	.	.	.	.
.	.	.	.	.	32g/JJJ	.	.	.	.	.	.	.	.	.
4r	.	.	4r	.	8g/L	.	4r	.	4r	.	.	4r	16b\LL	16dd\LL
.	.	.	.	.	.	.	.	.	.	.	.	.	16b\	16dd\
.	.	.	.	.	8g/J	.	.	.	.	.	.	.	16cc\	16ee\
.	.	.	.	.	.	.	.	.	.	.	.	.	16dd\JJ	16ff\JJ
=38	=38	=38	=38	=38	=38	=38	=38	=38	=38	=38	=38	=38	=38	=38
!	!	!	!	!	!	!	!LO:TX:a:t=7.	!	!	!	!	!	!	!
!	!	!	!	!	!	!	!LO:N:vis=00	!	!LO:N:vis=00	!	!	!	!	!
8r	.	.	8.e/L	.	8.g/L	.	0r	.	0r	.	2ryy	8.gg\L	8.ee\L	8.gg\L
8C/L	4 2	.	.	.	.	.	.	.	.	.	.	.	.	.
.	.	.	16d/Jk	.	16f/Jk	.	.	.	.	.	.	16ff\Jk	16dd\Jk	16ff\Jk
*	*	*	*	*	*	*	*	*	*	*	*	*	*tremolo	*
8C/	3_ 1_	.	16c/LL	.	16e/LL	.	.	.	.	.	.	16ee\LL	16cc\L	16ee\LL
.	.	.	16c/	.	16e/	.	.	.	.	.	.	16ee\	16cc\	16ee\
8C/J	.	.	16c/	.	16e/	.	.	.	.	.	.	16ee\	16cc\	16ee\
.	X X	.	16c/JJ	.	16e/JJ	.	.	.	.	.	.	16ee\JJ	16cc\J	16ee\JJ
=39	=39	=39	=39	=39	=39	=39	=39	=39	=39	=39	=39	=39	=39	=39
8r	.	.	16c/LL	.	16e/LL	.	.	.	.	.	2ryy	16ee\LL	16cc\LL	16ee\LL
.	.	.	16d/J	.	16f/J	.	.	.	.	.	.	16ff\J	16dd\J	16ff\J
!LO:TX:a:t=P:problem=mixed beam	!	!	!	!	!	!	!	!	!	!	!	!	!	!
8G\L	.	.	8B/J	.	8d/J	.	.	.	.	.	.	8dd\J	8b\J	8dd\J
8GG/J	.	.	16B/LL	.	16d/LL	.	.	.	.	.	.	4r	16b\LL	16dd\LL
.	.	.	16c/	.	16e/	.	.	.	.	.	.	.	16cc\	16ee\
8r	.	.	16d/	.	16f/	.	.	.	.	.	.	.	16dd\	16ff\
.	.	.	16e/JJ	.	16g/JJ	.	.	.	.	.	.	.	16ee\JJ	16gg\JJ
!	!	!	!	!	!LO:LB:g=original	!	!	!	!	!	!	!	!	!
=40	=40	=40	=40	=40	=40	=40	=40	=40	=40	=40	=40	=40	=40	=40
8r	.	.	8.f/L	.	8.a/L	.	.	.	.	.	2ryy	8.aa\L	8.ff\L	8.aa\L
8BB/L	7 5	.	.	.	.	.	.	.	.	.	.	.	.	.
.	.	.	16e/Jk	.	16g/Jk	.	.	.	.	.	.	16gg\Jk	16ee\Jk	16gg\Jk
8BB/	6 4	.	16d/LL	.	16f/LL	.	.	.	.	.	.	16ff\LL	16dd\L	16ff\LL
.	.	.	16d/	.	16f/	.	.	.	.	.	.	16ff\	16dd\	16ff\
8BB/J	5 3	.	16d/	.	16f/	.	.	.	.	.	.	16ff\	16dd\	16ff\
.	.	.	16d/JJ	.	16f/JJ	.	.	.	.	.	.	16ff\JJ	16dd\J	16ff\JJ
!	!	!	!	!	!	!	!	!	!	!	!	!LO:LB:g=original	!	!
=41	=41	=41	=41	=41	=41	=41	=41	=41	=41	=41	=41	=41	=41	=41
8r	.	.	16d/LL	.	16f/LL	.	.	.	.	.	2ryy	16ff\LL	16dd\LL	16ff\LL
.	.	.	16e/J	.	16g/J	.	.	.	.	.	.	16gg\J	16ee\J	16gg\J
8C/L	.	.	8c/J	.	8e/J	.	.	.	.	.	.	8ee\J	8cc\J	8ee\J
8C/J	.	.	4r	.	4r	.	.	.	.	.	.	4r	8r	8r
8r	.	.	.	.	.	.	.	.	.	.	.	.	8cc\	8cc\
=42	=42	=42	=42	=42	=42	=42	=42	=42	=42	=42	=42	=42	=42	=42
!	!	!	!	!	!	!	!LO:N:vis=0	!	!LO:N:vis=0	!	!	!	!	!
8r	.	.	8.a/L	.	8.cc\L	.	1r	.	1r	.	2ryy	2cc\	8.aa\L	8.ccc\L
8C/L	6 4	.	.	.	.	.	.	.	.	.	.	.	.	.
.	.	.	16g/Jk	.	16b\Jk	.	.	.	.	.	.	.	16gg\Jk	16bb\Jk
8C/	.	.	16f/LL	.	16a/LL	.	.	.	.	.	.	.	8ff\	8aa\
.	.	.	16f/	.	16a/	.	.	.	.	.	.	.	.	.
8C/J	.	.	16f/	.	16a/	.	.	.	.	.	.	.	8r	8r
.	.	.	16f/JJ	.	16a/JJ	.	.	.	.	.	.	.	.	.
!LO:LB:g=original	!	!	!LO:LB:g=original	!	!	!	!	!	!	!	!	!	!	!LO:LB:g=original
=43	=43	=43	=43	=43	=43	=43	=43	=43	=43	=43	=43	=43	=43	=43
8r	.	.	16f/LL	.	16a/LL	.	.	.	.	.	2ryy	8cc\	8.ff\L	8.aa\L
.	.	.	16g/	.	16b/	.	.	.	.	.	.	.	.	.
8C/L	6 4	.	16a/	.	16cc/	.	.	.	.	.	.	8r	.	.
.	.	.	16f/JJ	.	16a/JJ	.	.	.	.	.	.	.	16ee\Jk	16gg\Jk
8BB/	6	.	8e/L	.	8g/L	.	.	.	.	.	.	8r	8dd\	8ff\
8GG/J	7	.	8d/J	.	8f/J	.	.	.	.	.	.	8g/	8r	8r
=44	=44	=44	=44	=44	=44	=44	=44	=44	=44	=44	=44	=44	=44	=44
!LO:TX:a:t=P:problem=mixed beam	!	!	!	!	!	!	!	!	!	!	!	!LO:TX:a:t=P:problem=mixed beam	!	!
8C\L	.	.	24c/LL	.	24e/LL	.	2r	.	2r	.	2ryy	8g/L	8cc\L	8ee\L
.	.	.	24B/	.	24d/	.	.	.	.	.	.	.	.	.
.	.	.	24c/JJ	.	24e/JJ	.	.	.	.	.	.	.	.	.
.	.	.	.	.	8qqb/	.	.	.	.	.	.	.	.	.
8F\	6	.	24f/LL	.	24a/LL	.	.	.	.	.	.	8ff\	8dd\	8ff\
.	.	.	24e/	.	24g/	.	.	.	.	.	.	.	.	.
.	.	.	24d/JJ	.	24f/JJ	.	.	.	.	.	.	.	.	.
8G\	4	.	8c/L	.	8e/L	.	.	.	.	.	.	8ee\	8cc\	8ee\
8GG/J	3	.	8B/J	.	8d/J	.	.	.	.	.	.	8dd\J	8b\J	8dd\J
=45	=45	=45	=45	=45	=45	=45	=45	=45	=45	=45	=45	=45	=45	=45
*	*	*	*tremolo	*	*	*	*	*	*	*	*	*	*	*
!LO:TX:a:t=Tutti	!	!	!	!LO:DY:rj	!	!	!	!	!	!	!	!	!	!
16C/LL	.	.	16e 16G/LL	fp	4c/	.	8.C/	Ky-	8.cc\	Ky-	2ryy	2ee\	2cc\	2ee\
16GG/	.	.	16e 16G/	.	.	.	.	.	.	.	.	.	.	.
16C/	.	.	16e 16G/	.	.	.	.	.	.	.	.	.	.	.
16GG/JJ	.	.	16e 16G/	.	.	.	16C/	-ri-	16cc\	-ri-	.	.	.	.
16E/LL	6	.	16e 16G/	.	16r	.	8C/	-e	8cc\	-e	.	.	.	.
16GG/	.	.	16e 16G/	.	16gg\LL	.	.	.	.	.	.	.	.	.
16E/	.	.	16e 16G/	.	16gg\	.	8C/	e-	8cc\	e-	.	.	.	.
16GG/JJ	.	.	16e 16G/JJ	.	16gg\JJ	.	.	.	.	.	.	.	.	.
!	!	!	!	!	!LO:LB:g=original	!	!	!	!	!	!	!	!	!
=46	=46	=46	=46	=46	=46	=46	=46	=46	=46	=46	=46	=46	=46	=46
!	!	!	!	!LO:DY:rj	!	!	!	!	!	!	!	!	!	!
16D/LL	6	.	16f 16G/LL	fp	16gg\LL	.	4D\	-ley-	4b\	-ley-	2ryy	2ff\	4b\	2ff\
16GG/	.	.	16f 16G/	.	16b\J	.	.	.	.	.	.	.	.	.
16D/	.	.	16f 16G/	.	8b\J	.	.	.	.	.	.	.	.	.
16GG/JJ	.	.	16f 16G/	.	.	.	.	.	.	.	.	.	.	.
16F/LL	4 2	.	16f 16G/	.	16r	.	4D\	-son	4b\	-son	.	.	4dd\	.
16GG/	.	.	16f 16G/	.	16b\LL	.	.	.	.	.	.	.	.	.
16F/	.	.	16f 16G/	.	16b\	.	.	.	.	.	.	.	.	.
16GG/JJ	.	.	16f 16G/JJ	.	16b\JJ	.	.	.	.	.	.	.	.	.
!	!	!	!	!	!	!	!LO:LB:g=original	!	!LO:LB:g=original	!	!	!	!	!
=47	=47	=47	=47	=47	=47	=47	=47	=47	=47	=47	=47	=47	=47	=47
!	!	!	!	!LO:DY:rj	!	!	!	!	!	!	!	!	!	!
16C/LL	.	.	16e 16G/LL	fp	16cc\LL	.	8.C/	Ky-	8.cc\	Ky-	2ryy	2ee\	2cc\	2ee\
16GG/	.	.	16e 16G/	.	16g\J	.	.	.	.	.	.	.	.	.
16C/	.	.	16e 16G/	.	8g\J	.	.	.	.	.	.	.	.	.
16GG/JJ	.	.	16e 16G/	.	.	.	16C/	-ri-	16cc\	-ri-	.	.	.	.
16E/LL	6	.	16e 16G/	.	16r	.	8C/	-e	8cc\	-e	.	.	.	.
16GG/	.	.	16e 16G/	.	16gg\LL	.	.	.	.	.	.	.	.	.
16E/	.	.	16e 16G/	.	16gg\	.	8C/	e-	8cc\	e-	.	.	.	.
16GG/JJ	.	.	16e 16G/JJ	.	16gg\JJ	.	.	.	.	.	.	.	.	.
=48	=48	=48	=48	=48	=48	=48	=48	=48	=48	=48	=48	=48	=48	=48
!	!	!	!	!LO:DY:rj	!	!	!	!	!	!	!	!	!	!
16D/LL	6	.	16f 16G/LL	fp	16gg\LL	.	4D/	-ley-	8b\	-ley-	2ryy	2ff\	4b\	4ff\
16GG/	.	.	16f 16G/	.	16b\J	.	.	.	.	.	.	.	.	.
16D/	.	.	16f 16G/	.	8b\J	.	.	.	16b\	-son	.	.	.	.
16GG/JJ	.	.	16f 16G/	.	.	.	.	.	16b\	e-	.	.	.	.
16F/LL	4 2	.	16f 16G/	.	24r	.	4GG/	.	4b\	-ley-	.	.	4f/	4b\
.	.	.	.	.	24b\LL	.	.	.	.	.	.	.	.	.
16GG/	.	.	16f 16G/	.	.	.	.	.	.	.	.	.	.	.
.	.	.	.	.	24cc\JJ	.	.	.	.	.	.	.	.	.
16F/	.	.	16f 16G/	.	24dd\LL	.	.	.	.	.	.	.	.	.
.	.	.	.	.	24cc\	.	.	.	.	.	.	.	.	.
16GG/JJ	.	.	16f 16G/JJ	.	.	.	.	.	.	.	.	.	.	.
.	.	.	.	.	24b\JJ	.	.	.	.	.	.	.	.	.
=49	=49	=49	=49	=49	=49	=49	=49	=49	=49	=49	=49	=49	=49	=49
!LO:TX:a:t=P:problem=mixed beam	!	!	!	!	!	!	!	!	!	!	!	!	!	!
8C\L	.	.	16e/	.	16cc\	.	8C/	-son	4cc\	-son	2ryy	8ee\	8d/L	8ccc\L
.	.	.	16r	p	16r	.	.	.	.	.	.	.	.	.
8F\	6	.	16f/	.	16a/	.	8r	.	.	.	.	8r	8f/	8aa\
.	.	.	16r	.	16r	.	.	.	.	.	.	.	.	.
8G\	6 4	.	16e/	.	16g/	.	4r	.	4r	.	.	8r	8e/	8gg\
.	.	.	16r	.	16r	.	.	.	.	.	.	.	.	.
8GG/J	5 3	.	16d/	.	16f/	.	.	.	.	.	.	8dd\	8d/J	8ff\J
.	.	.	16r	.	16r	.	.	.	.	.	.	.	.	.
=50	=50	=50	=50	=50	=50	=50	=50	=50	=50	=50	=50	=50	=50	=50
8C/L	4 2_	.	4d/	.	4f/	.	2r	.	2r	.	2ryy	4dd\	4d/	4ff\
8C/	.	.	.	.	.	.	.	.	.	.	.	.	.	.
8C/J	3 _	.	4c/	.	4e/	.	.	.	.	.	.	8ee\	8c/	8ee\
!	!	!	!	!	!LO:TX:a:t=50.:problem=po kresce taktowej	!	!	!	!	!	!	!	!	!LO:TX:a:t=50.:problem=po kresce taktowej
8r	X	.	.	.	.	.	.	.	.	.	.	8r	8r	8r
==	==	==	==	==	==	==	==	==	==	==	==	==	==	==
*-	*-	*-	*-	*-	*-	*-	*-	*-	*-	*-	*-	*-	*-	*-
!!!system-decoration: [g1][g2][g3][g4]s9
!!!RDF**kern: > = above
!!!RDF**kern: < = below
!!!RDF**dynam: p = "p."
!!!RDF**dynam: f = "for"
!!!ENC: Marta Lawrence
!!!END: 2020-10-08
!!!ENC: Anastazja Marusiak
!!!END: 2020-06-03
